Origami/64x64/apps/minetest.svg

<svg width="64" height="64" version="1.1" viewBox="0 0 64 64" xmlns="http://www.w3.org/2000/svg">
 <path d="m31.866745 27.002294c-0.928381 0.02092-1.791276 0.158039-2.808228 0.726037l-22.851018 12.763232c-1.0177633 0.568464-2.0823294 1.641944-2.1994998 3.253893-0.1171696 1.61195 1.0748881 3.134853 2.1876106 3.756365l22.874799 12.776512c1.112828 0.621566 2.133744 0.740615 3.062653 0.719397 0.928909-0.02122 1.79111-0.157919 2.808227-0.726037l22.851019-12.763232c1.017018-0.568054 2.082223-1.641313 2.1995-3.253893 0.11728-1.612582-1.07551-3.135201-2.18761-3.756365l-22.874799-12.776512c-1.112329-0.621286-2.132519-0.740113-3.060278-0.719397z" style="opacity:.2"/>
 <path d="m31.866745 26.0023c-0.928381 0.02092-1.791276 0.15804-2.808228 0.726038l-22.851018 12.763232c-1.0177633 0.568464-2.0823294 1.641944-2.1994998 3.253893-0.1171696 1.61195 1.0748881 3.134853 2.1876106 3.756365l22.874799 12.776512c1.112828 0.621565 2.133744 0.740615 3.062653 0.719397 0.928909-0.02122 1.79111-0.157919 2.808227-0.726037l22.851019-12.763232c1.017018-0.568054 2.082223-1.641313 2.1995-3.253893 0.11728-1.612583-1.07551-3.135201-2.18761-3.756365l-22.874799-12.776512c-1.112329-0.621286-2.132519-0.740113-3.060278-0.719398z" style="fill:#197236"/>
 <path d="m31.867188 26.003906c-0.928382 0.02092-1.791642 0.154663-2.808594 0.722656l-22.851563 12.765626c-1.0177632 0.568463-2.0820481 1.641957-2.1992187 3.253906-0.0176357 0.242626 0.0034459 0.480001 0.0429687 0.714844 0.215725-1.450851 1.2010491-2.43523 2.15625-2.96875l22.851563-12.765626c1.016952-0.567994 1.880212-0.701736 2.808594-0.722656h0.003906c0.927759-0.020716 1.946264 0.097464 3.058594 0.71875l22.875 12.777344c0.939838 0.524947 1.92693 1.693381 2.142578 3.015625 0.017584-0.085439 0.038222-0.169521 0.044922-0.261719 0.11728-1.612583-1.0754-3.132742-2.1875-3.753906l-22.875-12.777344c-1.11233-0.621286-2.130835-0.739466-3.058594-0.71875h-0.003906z" style="fill:#ffffff;opacity:.1"/>
 <path d="m19.99995 31.000104h7.999973v10.999962l-3.999987 2.999989-3.999986-2.999989z" style="opacity:.2"/>
 <path d="m19.99995 30.000111h7.999973v10.999962l-3.999987 2.999989-3.999986-2.999989z" style="fill:#a0722e"/>
 <path d="m24.084186 5.0011916a3.5510693 3.4108848 0 0 0 -1.859689 0.4550211l-10.448808 5.7944323a3.5510693 3.4108848 0 0 0 -1.775689 2.954212v11.589613a3.5510693 3.4108848 0 0 0 1.775535 2.953916l10.448804 5.794732a3.5510693 3.4108848 0 0 0 3.55107 0l10.448806-5.794732a3.5510693 3.4108848 0 0 0 1.775687 -2.954216v-11.589613a3.5510693 3.4108848 0 0 0 -1.775687 -2.954214l-10.448806-5.7944311a3.5510693 3.4108848 0 0 0 -1.691691 -0.4550181z" style="opacity:.2"/>
 <path d="m24.084186 4.0011981a3.5510693 3.4108848 0 0 0 -1.859689 0.4550211l-10.448808 5.7944318a3.5510693 3.4108848 0 0 0 -1.775689 2.954213v11.589613a3.5510693 3.4108848 0 0 0 1.775535 2.953915l10.448804 5.794732a3.5510693 3.4108848 0 0 0 3.55107 0l10.448806-5.794732a3.5510693 3.4108848 0 0 0 1.775687 -2.954215v-11.589613a3.5510693 3.4108848 0 0 0 -1.775687 -2.954214l-10.448806-5.7944316a3.5510693 3.4108848 0 0 0 -1.691691 -0.4550181z" style="fill:#74ba2f"/>
 <path d="M 24.083077,4 A 3.5510693,3.4108848 0 0 0 22.223702,4.4570312 L 11.774483,10.25 a 3.5510693,3.4108848 0 0 0 -1.773437,2.953125 v 1 A 3.5510693,3.4108848 0 0 1 11.774483,11.25 L 22.223702,5.4570312 A 3.5510693,3.4108848 0 0 1 24.083077,5 3.5510693,3.4108848 0 0 1 25.774483,5.4570312 L 36.223702,11.25 a 3.5510693,3.4108848 0 0 1 1.777343,2.953125 v -1 A 3.5510693,3.4108848 0 0 0 36.223702,10.25 L 25.774483,4.4570312 A 3.5510693,3.4108848 0 0 0 24.083077,4 Z" style="fill:#ffffff;opacity:.2"/>
</svg>

<svg xmlns="http://www.w3.org/2000/svg" width="64" height="64" version="1.1" viewBox="0 0 64 64">
 <path style="opacity:0.2" d="m 31.866745,27.002294 c -0.928381,0.02092 -1.791276,0.158039 -2.808228,0.726037 L 6.2074989,40.491563 c -1.0177633,0.568464 -2.0823294,1.641944 -2.1994998,3.253893 -0.1171696,1.61195 1.0748881,3.134853 2.1876106,3.756365 L 29.070409,60.278333 c 1.112828,0.621566 2.133744,0.740615 3.062653,0.719397 0.928909,-0.02122 1.79111,-0.157919 2.808227,-0.726037 L 57.792308,47.508461 c 1.017018,-0.568054 2.082223,-1.641313 2.1995,-3.253893 0.11728,-1.612582 -1.07551,-3.135201 -2.18761,-3.756365 L 34.929399,27.721691 C 33.81707,27.100405 32.79688,26.981578 31.869121,27.002294 Z"/>
 <path style="fill:#197236" d="m 31.866745,26.0023 c -0.928381,0.02092 -1.791276,0.15804 -2.808228,0.726038 L 6.2074989,39.49157 c -1.0177633,0.568464 -2.0823294,1.641944 -2.1994998,3.253893 -0.1171696,1.61195 1.0748881,3.134853 2.1876106,3.756365 L 29.070409,59.27834 c 1.112828,0.621565 2.133744,0.740615 3.062653,0.719397 0.928909,-0.02122 1.79111,-0.157919 2.808227,-0.726037 L 57.792308,46.508468 c 1.017018,-0.568054 2.082223,-1.641313 2.1995,-3.253893 0.11728,-1.612583 -1.07551,-3.135201 -2.18761,-3.756365 L 34.929399,26.721698 C 33.81707,26.100412 32.79688,25.981585 31.869121,26.0023 Z"/>
 <path style="opacity:0.1;fill:#ffffff" d="M 31.867188 26.003906 C 30.938806 26.024826 30.075546 26.158569 29.058594 26.726562 L 6.2070312 39.492188 C 5.189268 40.060651 4.1249831 41.134145 4.0078125 42.746094 C 3.9901768 42.98872 4.0112584 43.226095 4.0507812 43.460938 C 4.2665062 42.010087 5.2518303 41.025708 6.2070312 40.492188 L 29.058594 27.726562 C 30.075546 27.158568 30.938806 27.024826 31.867188 27.003906 L 31.871094 27.003906 C 32.798853 26.98319 33.817358 27.10137 34.929688 27.722656 L 57.804688 40.5 C 58.744526 41.024947 59.731618 42.193381 59.947266 43.515625 C 59.96485 43.430186 59.985488 43.346104 59.992188 43.253906 C 60.109468 41.641323 58.916788 40.121164 57.804688 39.5 L 34.929688 26.722656 C 33.817358 26.10137 32.798853 25.98319 31.871094 26.003906 L 31.867188 26.003906 z"/>
 <path style="opacity:0.2" d="m 19.99995,31.000104 h 7.999973 v 10.999962 l -3.999987,2.999989 -3.999986,-2.999989 z"/>
 <path style="fill:#a0722e" d="m 19.99995,30.000111 h 7.999973 v 10.999962 l -3.999987,2.999989 -3.999986,-2.999989 z"/>
 <path style="opacity:0.2" d="M 24.084186,5.0011916 A 3.5510693,3.4108848 0 0 0 22.224497,5.4562127 L 11.775689,11.250645 A 3.5510693,3.4108848 0 0 0 10,14.204857 V 25.79447 a 3.5510693,3.4108848 0 0 0 1.775535,2.953916 l 10.448804,5.794732 a 3.5510693,3.4108848 0 0 0 3.55107,0 L 36.224215,28.748386 A 3.5510693,3.4108848 0 0 0 37.999902,25.79417 V 14.204557 A 3.5510693,3.4108848 0 0 0 36.224215,11.250343 L 25.775409,5.4559119 A 3.5510693,3.4108848 0 0 0 24.083718,5.0008938 Z"/>
 <path style="fill:#74ba2f" d="M 24.084186,4.0011981 A 3.5510693,3.4108848 0 0 0 22.224497,4.4562192 L 11.775689,10.250651 A 3.5510693,3.4108848 0 0 0 10,13.204864 v 11.589613 a 3.5510693,3.4108848 0 0 0 1.775535,2.953915 l 10.448804,5.794732 a 3.5510693,3.4108848 0 0 0 3.55107,0 l 10.448806,-5.794732 a 3.5510693,3.4108848 0 0 0 1.775687,-2.954215 V 13.204564 A 3.5510693,3.4108848 0 0 0 36.224215,10.25035 L 25.775409,4.4559184 A 3.5510693,3.4108848 0 0 0 24.083718,4.0009003 Z"/>
 <path style="opacity:0.2;fill:#ffffff" d="M 24.083077,4 A 3.5510693,3.4108848 0 0 0 22.223702,4.4570312 L 11.774483,10.25 a 3.5510693,3.4108848 0 0 0 -1.773437,2.953125 v 1 A 3.5510693,3.4108848 0 0 1 11.774483,11.25 L 22.223702,5.4570312 A 3.5510693,3.4108848 0 0 1 24.083077,5 3.5510693,3.4108848 0 0 1 25.774483,5.4570312 L 36.223702,11.25 a 3.5510693,3.4108848 0 0 1 1.777343,2.953125 v -1 A 3.5510693,3.4108848 0 0 0 36.223702,10.25 L 25.774483,4.4570312 A 3.5510693,3.4108848 0 0 0 24.083077,4 Z"/>
</svg>
